src/public/images/header-background-lines-mobile.svg

<svg xmlns="http://www.w3.org/2000/svg" width="629" height="536" fill="none"><g stroke="#fff" stroke-width="2" opacity=".12"><path d="M339.107 326c-32.552 17.323-64.805 26.359-90.613 27.002-25.885.645-44.934-7.138-51.692-22.973-6.758-15.835-.172-37.26 16.58-59.305 16.703-21.98 43.303-44.264 75.855-61.587 32.551-17.323 64.805-26.359 90.613-27.002 25.885-.646 44.934 7.137 51.692 22.973 6.757 15.835.172 37.26-16.58 59.305-16.703 21.98-43.303 44.264-75.855 61.587Z"/><path d="M369.2 396.516c-71.35 37.971-142.096 57.806-198.776 59.219-56.755 1.415-99.054-15.628-114.121-50.936-15.067-35.308-.28-82.731 36.453-131.068 36.682-48.272 95.039-97.141 166.388-135.111 71.35-37.97 142.096-57.806 198.775-59.219 56.756-1.414 99.055 15.629 114.122 50.937 15.067 35.308.279 82.731-36.453 131.067-36.682 48.272-95.039 97.141-166.388 135.111Z"/><path d="M356.256 366.185c-54.662 29.09-108.851 44.28-152.252 45.362-43.477 1.084-75.776-11.976-87.269-38.909-11.493-26.932-.233-63.173 27.905-100.2 28.089-36.963 72.786-74.397 127.448-103.487 54.661-29.089 108.851-44.279 152.252-45.361 43.477-1.084 75.775 11.976 87.268 38.908 11.493 26.933.234 63.173-27.905 100.201-28.089 36.963-72.786 74.397-127.447 103.486Z"/></g></svg>

<svg width="629" height="536" viewBox="0 0 629 536" fill="none" xmlns="http://www.w3.org/2000/svg">
<g opacity="0.12">
<path d="M339.107 326C306.555 343.323 274.302 352.359 248.494 353.002C222.609 353.647 203.56 345.864 196.802 330.029C190.044 314.194 196.63 292.769 213.382 270.724C230.085 248.744 256.685 226.46 289.237 209.137C321.788 191.814 354.042 182.778 379.85 182.135C405.735 181.489 424.784 189.272 431.542 205.108C438.299 220.943 431.714 242.368 414.962 264.413C398.259 286.393 371.659 308.677 339.107 326Z" stroke="white" stroke-width="2"/>
<path d="M369.2 396.516C297.85 434.487 227.104 454.322 170.424 455.735C113.669 457.15 71.3704 440.107 56.303 404.799C41.2355 369.491 56.0234 322.068 92.7555 273.731C129.438 225.459 187.795 176.59 259.144 138.62C330.494 100.65 401.24 80.8144 457.919 79.4014C514.675 77.9865 556.974 95.0299 572.041 130.338C587.108 165.646 572.32 213.069 535.588 261.405C498.906 309.677 440.549 358.546 369.2 396.516Z" stroke="white" stroke-width="2"/>
<path d="M356.256 366.185C301.594 395.275 247.405 410.465 204.004 411.547C160.527 412.631 128.228 399.571 116.735 372.638C105.242 345.706 116.502 309.465 144.64 272.438C172.729 235.475 217.426 198.041 272.088 168.951C326.749 139.862 380.939 124.672 424.34 123.59C467.817 122.506 500.115 135.566 511.608 162.498C523.101 189.431 511.842 225.671 483.703 262.699C455.614 299.662 410.917 337.096 356.256 366.185Z" stroke="white" stroke-width="2"/>
</g>
</svg>
